X:1
T:Title
%%score { ( 1 3 5 ) | ( 2 4 6 ) }
L:1/8
Q:1/4=84
M:3/4
K:Eb
V:1 treble nm="Church Organ"
V:3 treble 
V:5 treble 
V:2 bass 
V:4 bass 
V:6 bass 
V:1
 z2 z2 G2 | Bc G2 z A, |[M:2/4] E4 | GA BG | z2 z c | .d2 z2 | [EGe][Fd] [Gc][B,DB] | .B2 z2 | %8
 [B,B]-[B,-EB-] [B,DB]B |[M:3/4] [Fd]c z2 z A | [Cc][_DB] z2 z F |[M:2/4] GA [B,B][CG] | G2 z A, | %13
 E4 |] %14
V:2
 z2 z2 [E,B,E]2 | z2 D4 |[M:2/4] A,2 z2 | [B,-E]2 B,2 | [CE]4 | [F,A,D]2 [G,B,DG]2 | %6
 [C,C][D,B,] [E,G,]G, | z[K:treble] .G3 | D,C, B,,[E,G,E] |[M:3/4] [D,A,][E,G,E] [F,A,C]2 [D,F,]2 | %10
 z2 C2 z2 |[M:2/4] [E,B,E]E,- [G,,E,-][A,,E,] | z2 F2 | [E,G,]4 |] %14
V:3
 x6 | z2 z2 F2 |[M:2/4] z2 G,F | x4 | c4 | A-[Ac] BB | x4 | [CF]4 | .F2 z2 |[M:3/4] z2 A4 | z2 E4 | %11
[M:2/4] z E3 | [B,D]4 | x4 |] %14
V:4
 x6 | [G,B,E][E,G,C] .B,2 B,,2 |[M:2/4] [C,C]3 [D,F,B,] | E,F, [G,D][E,CE] | .A,2 z2 | x4 | x4 | %7
 .F,2[K:treble] z =A | x4 |[M:3/4] x6 | [A,,E,][B,,G,] [C,G,]3 [D,F,] |[M:2/4] z [C,A,] z2 | B,,4 | %13
 x4 |] %14
V:5
 x6 | x6 |[M:2/4] x4 | x4 | z2 G,2 | x4 | x4 | x4 | x4 |[M:3/4] z2 z2 _D2 | z2 z2 B,2 |[M:2/4] x4 | %12
 x4 | x4 |] %14
V:6
 x6 | x6 |[M:2/4] x4 | x4 | x4 | x4 | x4 | z2[K:treble] E,2 | x4 |[M:3/4] x6 | x6 |[M:2/4] x4 | %12
 x4 | x4 |] %14

